resources/svg/pen-nib-duotone.svg

<svg xmlns="http://www.w3.org/2000/svg" viewBox="0 0 256 256" fill="currentColor"><path d="M120.00586,56.00342,60.3291,78.38232a7.99941,7.99941,0,0,0-5.08227,6.1753l-23.241,139.4458,139.4458-23.24121a7.99949,7.99949,0,0,0,6.17529-5.082l22.37891-59.67676ZM116,160a20,20,0,1,1,20-20A19.9999,19.9999,0,0,1,116,160Z" opacity="0.2"/><path d="M232.00586,92.68945,163.31934,24.00293a16.01955,16.01955,0,0,0-22.627,0l-25.119,25.11865-58.05481,21.77A16.04728,16.04728,0,0,0,47.35547,83.24219L24.11475,222.6875c-.00989.05908-.01026.11865-.01874.17773-.02954.20606-.05213.41309-.06549.62061-.00659.102-.01178.20312-.01453.30518-.00537.20312-.00122.40625.00891.60986.00452.08984.00537.18017.01288.26953a8.00724,8.00724,0,0,0,.33551,1.71875c.02057.06592.0459.12988.06824.19531.07281.21387.1535.42481.24487.6333.03406.07764.07037.15381.10693.23047q.13825.28931.3014.56885c.04406.07617.08709.15186.13379.22656.11682.18653.24444.36768.37817.5459.048.06445.0921.13037.14215.19336a7.71485,7.71485,0,0,0,1.19751,1.2168c.14709.1206.301.22754.45441.33593.0606.04248.11779.09082.17938.13184.20056.1333.407.25391.61627.36719.01868.01025.03619.02295.05493.03271.2182.11621.44116.21973.66712.314.01336.00537.02606.01269.03949.01806.21814.08985.43994.167.66369.23682.02466.00732.04834.01807.073.02539.20508.06152.41284.11035.62128.15527.04663.01026.092.02491.13879.0337.19666.03906.39508.06445.59363.08837.06.00684.119.02.1792.02588q.38.03663.7619.03711l.01593.001h.00049a8.06407,8.06407,0,0,0,1.19653-.09863c.03943-.00586.079-.00342.11841-.00977L172.76709,208.6543a16.04584,16.04584,0,0,0,12.35059-10.165l21.77014-58.0542,25.118-25.11768A16.019,16.019,0,0,0,232.00586,92.68945ZM170.13672,192.87109,55.31189,212.0083l47.37537-47.38086A28.01412,28.01412,0,1,0,91.37341,153.314l-47.372,47.37793L63.13818,85.87207,117.9917,65.30273l72.71484,72.71485ZM104,140a12,12,0,1,1,12,12A12.01343,12.01343,0,0,1,104,140Zm96.00592-15.311-68.686-68.686,20.686-20.68555,68.68652,68.68555Z"/></svg>

<svg xmlns="http://www.w3.org/2000/svg" viewBox="0 0 256 256" fill="currentColor"><path d="M120,56,60.3,78.4a8.1,8.1,0,0,0-5.1,6.2L32,224l139.5-23.2a7.9,7.9,0,0,0,6.1-5.1L200,136Zm-4,104a20,20,0,1,1,20-20A20.1,20.1,0,0,1,116,160Z" opacity="0.2"/><path d="M232,92.7,163.3,24a16.1,16.1,0,0,0-22.6,0L115.6,49.1,57.5,70.9A15.9,15.9,0,0,0,47.4,83.2L24.1,222.7A7.9,7.9,0,0,0,32,232h1.3l139.5-23.2a16.2,16.2,0,0,0,12.3-10.2l21.8-58.1L232,115.3A16.1,16.1,0,0,0,232,92.7ZM170.1,192.9,55.3,212l47.4-47.4A27.1,27.1,0,0,0,116,168a28,28,0,1,0-28-28,27.1,27.1,0,0,0,3.4,13.3L44,200.7,63.1,85.9,118,65.3,190.7,138ZM104,140a12,12,0,1,1,12,12A12,12,0,0,1,104,140Zm96-15.3L131.3,56,152,35.3,220.7,104Z"/></svg>
